X: 363
M: 2/2
L: 1/8
K: G
!segno!G2GA |\
[| "2.F."d2d2 |\
e2d2 e2f2 | g2fe d2d2 | e2d2 e2f2 | g4 d2d2 |\
e2d2 c2B2 | A2G2 A2B2 | c4 B4 | !+!A4 !segno!y|]

